svg/100/outlined/more_horiz-fill.svg

<svg xmlns="http://www.w3.org/2000/svg" width="48" height="48" viewBox="0 -960 960 960"><path d="M253.858-462q-7.483 0-12.67-5.313Q236-472.627 236-480.089q0-7.461 5.313-12.686Q246.627-498 254.089-498q7.461 0 13.186 5.313Q273-487.373 273-479.911q0 7.461-5.623 12.686T253.858-462Zm226.053 0q-7.461 0-12.686-5.313Q462-472.627 462-480.089q0-7.461 5.313-12.686Q472.627-498 480.089-498q7.461 0 12.686 5.313Q498-487.373 498-479.911q0 7.461-5.313 12.686Q487.373-462 479.911-462Zm226 0q-7.461 0-13.186-5.313Q687-472.627 687-480.089q0-7.461 5.623-12.686T706.142-498q7.483 0 12.67 5.313Q724-487.373 724-479.911q0 7.461-5.313 12.686Q713.373-462 705.911-462Z"/></svg>

<svg xmlns="http://www.w3.org/2000/svg" width="48" height="48" viewBox="0 -960 960 960"><path d="M253.86-462q-7.48 0-12.67-5.31-5.19-5.32-5.19-12.78 0-7.46 5.31-12.68 5.32-5.23 12.78-5.23 7.46 0 13.18 5.31 5.73 5.32 5.73 12.78 0 7.46-5.62 12.68-5.63 5.23-13.52 5.23Zm226.05 0q-7.46 0-12.68-5.31-5.23-5.32-5.23-12.78 0-7.46 5.31-12.68 5.32-5.23 12.78-5.23 7.46 0 12.68 5.31 5.23 5.32 5.23 12.78 0 7.46-5.31 12.68-5.32 5.23-12.78 5.23Zm226 0q-7.46 0-13.19-5.31-5.72-5.32-5.72-12.78 0-7.46 5.62-12.68 5.63-5.23 13.52-5.23 7.49 0 12.67 5.31 5.19 5.32 5.19 12.78 0 7.46-5.31 12.68-5.32 5.23-12.78 5.23Z"/></svg>
